X: 1134
T: If There Weren't Any Women In The World
M: 4/4
L: 1/8
R: barndance
K: A Major
|: c>d |
e>fe>c A2 c>A | F2 A>F E2 A>B |  c>e^d>e  f>ec>A | B6 c>d |
e>fe>c A>B (3cBA | F>BA>F (3EFE A>B | c>ec>A B>^AB>G | A6 :|
|: (3cde |
f3 g a3 g | f2 e2 e2 A>B | c>e^d>e f>ec>A | B6 c>d |
e2 e>c A2 c>A | F2 =F2 E2 A>B | c2 (3cde B2 (3BAG | A5 A :|
